Yaru++/actions/16/snap-grid-guide-intersections.svg

<svg viewBox="0 0 24 24" xmlns="http://www.w3.org/2000/svg"><path d="m11.5 4v9h1v-9zm-3 1v4l2-2zm7 0-2 2 2 2zm3.966797 3.2519531-.005859.0019531v.0019532zm-.005859.0039063-6.892579 4.7441406h.431641v.919922l7-4.8125001zm-8.460938 5.8242186-6.6992188 4.611328.5820313.808594 6.5449215-4.5h-.427734zm-6.6992188 4.611328-.0019531-.003906v.005859zm7.1992188-3.691406v5h1v-5z" fill="#808080"/><path d="m10 12v4h4v-4zm1 1h2v2h-2z" fill="#1d99f3"/></svg>

<svg xmlns="http://www.w3.org/2000/svg" viewBox="0 0 24 24">
 <defs>
  <style id="current-color-scheme" type="text/css">
   .ColorScheme-Text { color:#808080; } .ColorScheme-Highlight { color:#1d99f3; }
  </style>
 </defs>
 <path style="fill:currentColor" class="ColorScheme-Text" d="M 11.5 4 L 11.5 13 L 12.5 13 L 12.5 4 L 11.5 4 z M 8.5 5 L 8.5 9 L 10.5 7 L 8.5 5 z M 15.5 5 L 13.5 7 L 15.5 9 L 15.5 5 z M 19.466797 8.2519531 L 19.460938 8.2539062 L 19.460938 8.2558594 L 19.466797 8.2519531 z M 19.460938 8.2558594 L 12.568359 13 L 13 13 L 13 13.919922 L 20 9.1074219 L 19.460938 8.2558594 z M 11 14.080078 L 4.3007812 18.691406 L 4.8828125 19.5 L 11.427734 15 L 11 15 L 11 14.080078 z M 4.3007812 18.691406 L 4.2988281 18.6875 L 4.2988281 18.693359 L 4.3007812 18.691406 z M 11.5 15 L 11.5 20 L 12.5 20 L 12.5 15 L 11.5 15 z"/>
 <path style="fill:currentColor" class="ColorScheme-Highlight" d="M 10 12 L 10 16 L 14 16 L 14 12 L 10 12 z M 11 13 L 13 13 L 13 15 L 11 15 L 11 13 z"/>
</svg>
